X:1
T:Title
%%score [ ( 1 2 ) ( 3 4 ) ]
L:1/8
Q:1/4=100
M:4/4
K:F
V:1 treble nm="Midi_20" snm=" "
V:2 treble 
V:3 bass nm="Midi_20"
V:4 bass 
V:1
"^Father, I know that all my life""^Charles Steggall\n(1826-1905)""^Anna Laetitia Waring\n(1823-1910)""^Morwellham  (86. 86. 86)" AB | %1
 c2 d2 c2 A2 | F2 B2 A2 || DE | F2 G2 A2 B2 | G6 || AG | F2 F2 F2 G2 | A2 =B2 c2 ||[M:4/4] cd | %10
 e2 c2 d3 d | c6 || c2 | d2 e2 c2 d2 | B2 AG c2 || FG | A2 B2 G3 F | F6 |] %18
V:2
 F2 | F2 F2 F2 E2 | D2 F2 F2 || D2 | C2 E2 F2 F2 | E6 || E2 | F2 D2 C2 E2 | F2 G2 G2 ||[M:4/4] F2 | %10
 G2 E2 A2 G2 | E6 || F2 | F2 G2 F2 A2 | G2 E2 F2 || F2 | F2 F2 F2 E2 | F6 |] %18
V:3
 F,G, | A,2 B,2 A,2 C2 | A,2 D2 C2 || B,2 | C2 B,2 C2 D2 | C6 || B,2 | A,2 B,2 C2 B,2 | C2 D2 C2 || %9
[M:4/4]"^1. Father, I know that all my life\nIs portioned out for me,\nThe changes that are sure to come\nI do not fear to see;\nI ask thee for a present mind\nIntent on pleasing thee.\n\n2. I ask thee for a thoughtful love,\nThrough constant watching wise,\nTo meet the glad with joyful smiles,\nTo wipe the weeping eyes;\nA heart at leisure from itself,\nTo soothe and sympathise.\n\n3. I ask thee for the daily strength\nTo none that ask denied;\nA mind to blend with outward life,\nWhile keeping at thy side;\nContent to fill a little space,\nIf thou be glorified.\n" A,=B, | %10
 C2 C2 C2 =B,2 | C6 || C2 | %13
 B,2 B,2 C2"^4. Whatever in the world I am,\nIn whatsoe'er estate,\nI have a fellowship with hearts\nTo keep and cultivate,\nA work of lowly love to do\nFor him on whom I wait.\n\n5. In service which thy will appoints\nThere are no bonds for me;\nMy inmost heart is taught the truth\nThat makes thy children free;\nA life of self-renouncing love\nIs one of liberty." F2 | %14
 D2 C2 C2 || A,B, | C2 D2 C2 B,2 | A,6 |] %18
V:4
 F,2 | F,2 F,2 F,2 C,2 | D,2 B,,2 F,2 || B,2 | A,2 G,2 F,2 B,,2 | C,6 || C,2 | D,2 B,2 A,2 G,2 | %8
 F,2 F,2 E,2 ||[M:4/4] D,2 | C,2 A,2 F,2 G,2 | C,6 || A,2 | B,2 G,2 A,2 F,2 | G,2 B,2 A,2 || D,2 | %16
 C,2 B,,2 C,2 C,2 | F,,6 |] %18

